X: 644
T: Winnifred
C:O'Carolan
B:O'Neill's 644
Z: 1997 by John Chambers <jc@trillian.mit.edu>
N:"Moderate"
M:C
L:1/8
K:Dm
DE \
| G2G>A GEDE | G2G>A GEDE | A2A>B c2E>F | G3E D2E>G |
| A2A>B c2A2 | d2d>e f2ed | cAGE CDEC | D4 D2 ||
AB \
| c2cd cAGA | d2de f2ed | d>cAG E2DE | CcGE C2DE |
| F2EF G2^FG | Ad{e}de f2ed | cAGE CDEC | D4 D2 |]


